X: 18332
T: Humours Of Westport, The
R: reel
M: 4/4
K: Fmajor
|f2 fe fcAc|f2 fe fage|f2 fe fcAc|BAGA Bcde|
f2 fe fcAc|f2 fe fagb|afge fcAc|BAGA BdcB|
AFcF dFcF|AFcF BdcB|AFcF dFcF|BAGA BdcB|
AFcF dFcF|AFcF BdcB|Acfa gefc|BAGA Bcde|

